frontend/public/svg/interface/question-2.svg

<svg width="71" height="134" viewBox="0 0 71 134" fill="none" xmlns="http://www.w3.org/2000/svg">
<g clip-path="url(#clip0)">
<path d="M2.51619 19.4153C4.86379 20.8581 6.37293 19.1636 7.47475 17.9244L7.57923 17.806C10.984 13.9844 15.5254 11.6472 22.3031 10.2252C32.7337 8.0409 41.5479 9.75168 49.255 15.4577C58.9053 22.6046 64.0439 37.6094 55.5168 49.3877C53.2338 52.454 50.5274 55.1786 47.4795 57.4797C43.6419 60.4492 39.5552 63.2438 35.6034 65.9466C34.0407 67.016 32.4775 68.0841 30.9252 69.1658C24.4434 73.5195 19.8762 80.2059 18.1667 87.8432C17.4155 91.1204 16.9484 94.4261 16.4552 97.9258C16.229 99.5227 16.0013 101.152 15.7355 102.821C15.7261 102.886 15.7261 102.951 15.7355 103.016C15.8178 103.602 15.8863 104.221 15.9576 104.863C16.1043 106.55 16.3784 108.222 16.778 109.867C17.3685 112.058 19.2078 113.405 21.6973 113.468H21.8676C22.9291 113.502 23.975 113.206 24.8627 112.622C25.7505 112.036 26.437 111.19 26.8274 110.199C27.4613 108.602 27.8738 106.926 28.0541 105.216C28.2835 103.395 28.4602 101.548 28.632 99.7582C28.8666 97.3052 29.1099 94.769 29.489 92.3056C29.8601 89.6269 30.7753 87.0529 32.1778 84.7437C33.5804 82.4344 35.4404 80.4388 37.6428 78.8808C38.9132 77.9565 40.2008 77.0549 41.4887 76.1534C43.8952 74.4692 46.3843 72.7279 48.717 70.8525L49.2734 70.4063C53.3697 67.1155 57.6047 63.7128 61.2875 59.8684C66.4201 54.6118 69.5196 47.692 70.029 40.3499C70.9889 26.289 65.5498 15.1559 53.8604 7.26032C40.8028 -1.55897 26.5309 -2.08262 10.2326 5.66467C6.79979 7.35614 3.94224 10.0287 2.01932 13.3462C0.564877 15.7413 0.777211 18.3433 2.51619 19.4153Z" fill="black"/>
<path d="M23.8226 118.717C21.558 118.708 19.7396 119.327 18.4912 120.574C17.2293 121.831 16.588 123.651 16.5854 125.985C16.5722 127.104 16.7812 128.215 17.2 129.252C17.6189 130.289 18.2397 131.232 19.0254 132.026C20.2667 133.27 21.9454 133.974 23.6992 133.986C23.7576 133.986 23.8149 133.986 23.8726 133.986C27.5898 133.886 31.0763 130.179 31.1871 126.209C31.216 125.248 31.0519 124.291 30.7042 123.395C30.3564 122.499 29.832 121.682 29.1629 120.994C28.4708 120.274 27.641 119.701 26.7235 119.309C25.806 118.919 24.8195 118.717 23.8226 118.717Z" fill="black"/>
</g>
<defs>
<clipPath id="clip0">
<rect width="70" height="134" fill="white" transform="translate(0.777344)"/>
</clipPath>
</defs>
</svg>

<svg xmlns="http://www.w3.org/2000/svg" width="71" height="134" fill="none" viewBox="0 0 71 134"><g fill="#000" clip-path="url(#a)"><path d="M2.516 19.415c2.348 1.443 3.857-.251 4.959-1.49l.104-.119c3.405-3.822 7.946-6.159 14.724-7.58 10.43-2.185 19.245-.474 26.952 5.232 9.65 7.147 14.789 22.151 6.262 33.93a40.3 40.3 0 0 1-8.038 8.092c-3.837 2.97-7.924 5.764-11.876 8.467-1.562 1.069-3.126 2.137-4.678 3.219a30.53 30.53 0 0 0-12.758 18.677c-.751 3.277-1.219 6.583-1.712 10.083-.226 1.597-.454 3.226-.72 4.895a.7.7 0 0 0 0 .195c.083.586.151 1.205.223 1.847a33 33 0 0 0 .82 5.004c.59 2.191 2.43 3.538 4.92 3.601h.17a5.15 5.15 0 0 0 4.96-3.269 19 19 0 0 0 1.226-4.983c.23-1.821.406-3.668.578-5.458.235-2.453.478-4.989.857-7.452a19.8 19.8 0 0 1 2.689-7.562 19.7 19.7 0 0 1 5.465-5.863c1.27-.924 2.558-1.826 3.846-2.728 2.406-1.684 4.895-3.425 7.228-5.3l.556-.447c4.097-3.29 8.332-6.693 12.014-10.538A31 31 0 0 0 70.03 40.35c.96-14.061-4.48-25.194-16.169-33.09-13.057-8.819-27.33-9.343-43.627-1.595a19.4 19.4 0 0 0-8.214 7.681c-1.454 2.395-1.242 4.997.497 6.07m21.306 99.301c-2.265-.009-4.083.61-5.332 1.857-1.262 1.257-1.903 3.077-1.906 5.411a8.46 8.46 0 0 0 2.44 6.041 6.67 6.67 0 0 0 4.674 1.96h.174c3.717-.1 7.203-3.807 7.314-7.777a7.18 7.18 0 0 0-2.024-5.215 7.4 7.4 0 0 0-2.44-1.685 7.4 7.4 0 0 0-2.9-.592"/></g><defs><clipPath id="a"><path fill="#fff" d="M.777 0h70v134h-70z"/></clipPath></defs></svg>
